src/lib/packages/icons/src/assets/line/grid-1.svg

<svg xmlns="http://www.w3.org/2000/svg" width="24" height="24" fill="none"><path fill="currentColor" d="M5 7.75A2.752 2.752 0 0 1 2.25 5 2.752 2.752 0 0 1 5 2.25 2.752 2.752 0 0 1 7.75 5 2.752 2.752 0 0 1 5 7.75Zm0-4c-.689 0-1.25.561-1.25 1.25S4.311 6.25 5 6.25 6.25 5.689 6.25 5 5.689 3.75 5 3.75Zm7 4A2.752 2.752 0 0 1 9.25 5 2.752 2.752 0 0 1 12 2.25 2.752 2.752 0 0 1 14.75 5 2.752 2.752 0 0 1 12 7.75Zm0-4c-.689 0-1.25.561-1.25 1.25s.561 1.25 1.25 1.25 1.25-.561 1.25-1.25-.561-1.25-1.25-1.25Zm7 4A2.752 2.752 0 0 1 16.25 5 2.752 2.752 0 0 1 19 2.25 2.752 2.752 0 0 1 21.75 5 2.752 2.752 0 0 1 19 7.75Zm0-4c-.689 0-1.25.561-1.25 1.25s.561 1.25 1.25 1.25 1.25-.561 1.25-1.25-.561-1.25-1.25-1.25Zm-14 11A2.752 2.752 0 0 1 2.25 12 2.752 2.752 0 0 1 5 9.25 2.752 2.752 0 0 1 7.75 12 2.752 2.752 0 0 1 5 14.75Zm0-4c-.689 0-1.25.561-1.25 1.25s.561 1.25 1.25 1.25 1.25-.561 1.25-1.25-.561-1.25-1.25-1.25Zm7 4A2.752 2.752 0 0 1 9.25 12 2.752 2.752 0 0 1 12 9.25 2.752 2.752 0 0 1 14.75 12 2.752 2.752 0 0 1 12 14.75Zm0-4c-.689 0-1.25.561-1.25 1.25s.561 1.25 1.25 1.25 1.25-.561 1.25-1.25-.561-1.25-1.25-1.25Zm7 4A2.752 2.752 0 0 1 16.25 12 2.752 2.752 0 0 1 19 9.25 2.752 2.752 0 0 1 21.75 12 2.752 2.752 0 0 1 19 14.75Zm0-4c-.689 0-1.25.561-1.25 1.25s.561 1.25 1.25 1.25 1.25-.561 1.25-1.25-.561-1.25-1.25-1.25Zm-14 11A2.752 2.752 0 0 1 2.25 19 2.752 2.752 0 0 1 5 16.25 2.752 2.752 0 0 1 7.75 19 2.752 2.752 0 0 1 5 21.75Zm0-4c-.689 0-1.25.561-1.25 1.25s.561 1.25 1.25 1.25 1.25-.561 1.25-1.25-.561-1.25-1.25-1.25Zm7 4A2.752 2.752 0 0 1 9.25 19 2.752 2.752 0 0 1 12 16.25 2.752 2.752 0 0 1 14.75 19 2.752 2.752 0 0 1 12 21.75Zm0-4c-.689 0-1.25.561-1.25 1.25s.561 1.25 1.25 1.25 1.25-.561 1.25-1.25-.561-1.25-1.25-1.25Zm7 4A2.752 2.752 0 0 1 16.25 19 2.752 2.752 0 0 1 19 16.25 2.752 2.752 0 0 1 21.75 19 2.752 2.752 0 0 1 19 21.75Zm0-4c-.689 0-1.25.561-1.25 1.25s.561 1.25 1.25 1.25 1.25-.561 1.25-1.25-.561-1.25-1.25-1.25Z"/></svg>

<svg width="24" height="24" viewBox="0 0 24 24" fill="none" xmlns="http://www.w3.org/2000/svg">
<path d="M5 7.75C3.483 7.75 2.25 6.517 2.25 5C2.25 3.483 3.483 2.25 5 2.25C6.517 2.25 7.75 3.483 7.75 5C7.75 6.517 6.517 7.75 5 7.75ZM5 3.75C4.311 3.75 3.75 4.311 3.75 5C3.75 5.689 4.311 6.25 5 6.25C5.689 6.25 6.25 5.689 6.25 5C6.25 4.311 5.689 3.75 5 3.75ZM12 7.75C10.483 7.75 9.25 6.517 9.25 5C9.25 3.483 10.483 2.25 12 2.25C13.517 2.25 14.75 3.483 14.75 5C14.75 6.517 13.517 7.75 12 7.75ZM12 3.75C11.311 3.75 10.75 4.311 10.75 5C10.75 5.689 11.311 6.25 12 6.25C12.689 6.25 13.25 5.689 13.25 5C13.25 4.311 12.689 3.75 12 3.75ZM19 7.75C17.483 7.75 16.25 6.517 16.25 5C16.25 3.483 17.483 2.25 19 2.25C20.517 2.25 21.75 3.483 21.75 5C21.75 6.517 20.517 7.75 19 7.75ZM19 3.75C18.311 3.75 17.75 4.311 17.75 5C17.75 5.689 18.311 6.25 19 6.25C19.689 6.25 20.25 5.689 20.25 5C20.25 4.311 19.689 3.75 19 3.75ZM5 14.75C3.483 14.75 2.25 13.517 2.25 12C2.25 10.483 3.483 9.25 5 9.25C6.517 9.25 7.75 10.483 7.75 12C7.75 13.517 6.517 14.75 5 14.75ZM5 10.75C4.311 10.75 3.75 11.311 3.75 12C3.75 12.689 4.311 13.25 5 13.25C5.689 13.25 6.25 12.689 6.25 12C6.25 11.311 5.689 10.75 5 10.75ZM12 14.75C10.483 14.75 9.25 13.517 9.25 12C9.25 10.483 10.483 9.25 12 9.25C13.517 9.25 14.75 10.483 14.75 12C14.75 13.517 13.517 14.75 12 14.75ZM12 10.75C11.311 10.75 10.75 11.311 10.75 12C10.75 12.689 11.311 13.25 12 13.25C12.689 13.25 13.25 12.689 13.25 12C13.25 11.311 12.689 10.75 12 10.75ZM19 14.75C17.483 14.75 16.25 13.517 16.25 12C16.25 10.483 17.483 9.25 19 9.25C20.517 9.25 21.75 10.483 21.75 12C21.75 13.517 20.517 14.75 19 14.75ZM19 10.75C18.311 10.75 17.75 11.311 17.75 12C17.75 12.689 18.311 13.25 19 13.25C19.689 13.25 20.25 12.689 20.25 12C20.25 11.311 19.689 10.75 19 10.75ZM5 21.75C3.483 21.75 2.25 20.517 2.25 19C2.25 17.483 3.483 16.25 5 16.25C6.517 16.25 7.75 17.483 7.75 19C7.75 20.517 6.517 21.75 5 21.75ZM5 17.75C4.311 17.75 3.75 18.311 3.75 19C3.75 19.689 4.311 20.25 5 20.25C5.689 20.25 6.25 19.689 6.25 19C6.25 18.311 5.689 17.75 5 17.75ZM12 21.75C10.483 21.75 9.25 20.517 9.25 19C9.25 17.483 10.483 16.25 12 16.25C13.517 16.25 14.75 17.483 14.75 19C14.75 20.517 13.517 21.75 12 21.75ZM12 17.75C11.311 17.75 10.75 18.311 10.75 19C10.75 19.689 11.311 20.25 12 20.25C12.689 20.25 13.25 19.689 13.25 19C13.25 18.311 12.689 17.75 12 17.75ZM19 21.75C17.483 21.75 16.25 20.517 16.25 19C16.25 17.483 17.483 16.25 19 16.25C20.517 16.25 21.75 17.483 21.75 19C21.75 20.517 20.517 21.75 19 21.75ZM19 17.75C18.311 17.75 17.75 18.311 17.75 19C17.75 19.689 18.311 20.25 19 20.25C19.689 20.25 20.25 19.689 20.25 19C20.25 18.311 19.689 17.75 19 17.75Z" fill="currentColor"/>
</svg>
